map_marker_monochrome/openmoji_moka_pot.svg

<svg xmlns="http://www.w3.org/2000/svg" width="24" height="24" viewBox="0 0 24 24"> <g transform="translate(2.4210566315789475 0.0) scale(0.42105263157894735)">
  
  <g
     id="line-supplement"
     transform="translate(-16,-4)">
    <path
       fill="none"
       stroke="#000"
       stroke-linecap="round"
       stroke-linejoin="round"
       stroke-width="2"
       d="m 30.9999,15.5 1.38,14.5"
       id="path2" />
    <path
       fill="none"
       stroke="#000"
       stroke-linecap="round"
       stroke-linejoin="round"
       stroke-width="2"
       d="m 32.71,39 -0.4314,1 -1.1613,17.5"
       id="path4" />
  </g>
  <g
     id="line"
     transform="translate(-16,-4)">
    <path
       fill="none"
       stroke="#000"
       stroke-linejoin="round"
       stroke-width="2"
       d="m 26,39.5 -3,19.5 0.5,1 h 24 l 1,-1 -3,-19.5 -1,-1 H 43.5 27 Z"
       id="path7" />
    <path
       fill="#000"
       d="m 49.5,15.5 0.9685,0.249 c 0.1272,-0.4948 -0.139,-1.0059 -0.6174,-1.1853 z M 45,33 v 1 c 0.4564,0 0.8548,-0.309 0.9685,-0.751 z M 37.5,11 37.8511,10.0637 C 37.7388,10.0216 37.6199,10 37.5,10 Z M 34,11 v -1 c -0.1247,0 -0.2483,0.0233 -0.3644,0.0688 z m -11.5,4.5 v 1 c 0.1247,0 0.2483,-0.0233 0.3644,-0.0688 z m -5.5,0 v -1 c -0.5523,0 -1,0.4477 -1,1 z m 0,0.5 h -1 c 0,0.3788 0.214,0.725 0.5528,0.8944 z m 2,1 0.8503,-0.5264 c -0.0977,-0.1576 -0.2372,-0.2851 -0.4031,-0.368 z m 6.0923,9.8415 0.9749,-0.2229 C 26.0427,26.5113 26.0006,26.4087 25.9426,26.3151 Z M 26.5,33 25.5251,33.2228 C 25.6291,33.6775 26.0336,34 26.5,34 Z m 22.0315,-17.749 -4.5,17.5 1.937,0.498 4.5,-17.5 z m -11.3826,-3.3147 12,4.5 0.7022,-1.8726 -12,-4.5 z M 34,12 h 3.5 V 10 H 34 Z m -11.1356,4.4312 11.5,-4.5 -0.7288,-1.8624 -11.5,4.5 z M 17,16.5 h 5.5 v -2 H 17 Z M 18,16 V 15.5 H 16 V 16 Z m 1.4472,0.1056 -2,-1 -0.8944,1.7888 2,1 z m 6.4954,10.2095 -6.0923,-9.8415 -1.7006,1.0528 6.0924,9.8414 z m 1.5323,6.4621 -1.4077,-6.1586 -1.9497,0.4457 1.4076,6.1585 z M 45,32 H 26.5 v 2 H 45 Z"
       id="path9" />
    <path
       fill="none"
       stroke="#000"
       stroke-linecap="round"
       stroke-linejoin="round"
       stroke-width="2"
       d="m 52.5,13.5 h 4 l 4,5 -9,17 v -6 L 57,19.5 55,17 h -5.5"
       id="path11" />
    <path
       fill="none"
       stroke="#000"
       stroke-linecap="round"
       stroke-linejoin="round"
       stroke-width="2"
       d="M 41,15.5 39.6497,30"
       id="path13" />
    <path
       fill="none"
       stroke="#000"
       stroke-linecap="round"
       stroke-linejoin="round"
       stroke-width="2"
       d="m 39.2745,38.5 0.4314,1 1.1614,17.5"
       id="path15" />
    <path
       fill="none"
       stroke="#000"
       stroke-linejoin="round"
       stroke-width="2"
       d="m 33,5 h 5 l -1,6 h -3 z"
       id="path17" />
    <path
       fill="none"
       stroke="#000"
       stroke-linecap="round"
       stroke-linejoin="round"
       stroke-width="2"
       d="M 21.5,15.5 H 41"
       id="path19" />
    <path
       fill="none"
       stroke="#000"
       stroke-linecap="round"
       stroke-width="2"
       d="m 26.9888,15.5745 -1.2951,7.3566"
       id="path21" />
    <path
       fill="none"
       stroke="#000"
       stroke-linecap="round"
       stroke-width="2"
       d="m 28,33 v 3"
       id="path23" />
    <path
       fill="none"
       stroke="#000"
       stroke-linecap="round"
       stroke-width="2"
       d="m 44,33 v 5"
       id="path25" />
  </g>
</g></svg>

<svg xmlns="http://www.w3.org/2000/svg" width="24" height="24" viewBox="0 0 24 24"> <g transform="scale(0.333333333)">  <g id="line-supplement">
    <path fill="none" stroke="#000" stroke-linecap="round" stroke-linejoin="round" stroke-width="2" d="M30.9999 15.5L32.3799 30"/>
    <path fill="none" stroke="#000" stroke-linecap="round" stroke-linejoin="round" stroke-width="2" d="M32.71 39L32.2786 40L31.1173 57.5"/>
  </g>
  <g id="line">
    <path fill="none" stroke="#000" stroke-linejoin="round" stroke-width="2" d="M26 39.5L23 59L23.5 60H47.5L48.5 59L45.5 39.5L44.5 38.5H43.5H27L26 39.5Z"/>
    <path fill="#000" d="M49.5 15.5L50.4685 15.749C50.5957 15.2542 50.3295 14.7431 49.8511 14.5637L49.5 15.5ZM45 33V34C45.4564 34 45.8548 33.691 45.9685 33.249L45 33ZM37.5 11L37.8511 10.0637C37.7388 10.0216 37.6199 10 37.5 10V11ZM34 11V10C33.8753 10 33.7517 10.0233 33.6356 10.0688L34 11ZM22.5 15.5V16.5C22.6247 16.5 22.7483 16.4767 22.8644 16.4312L22.5 15.5ZM17 15.5V14.5C16.4477 14.5 16 14.9477 16 15.5H17ZM17 16H16C16 16.3788 16.214 16.725 16.5528 16.8944L17 16ZM19 17L19.8503 16.4736C19.7526 16.316 19.6131 16.1885 19.4472 16.1056L19 17ZM25.0923 26.8415L26.0672 26.6186C26.0427 26.5113 26.0006 26.4087 25.9426 26.3151L25.0923 26.8415ZM26.5 33L25.5251 33.2228C25.6291 33.6775 26.0336 34 26.5 34V33ZM48.5315 15.251L44.0315 32.751L45.9685 33.249L50.4685 15.749L48.5315 15.251ZM37.1489 11.9363L49.1489 16.4363L49.8511 14.5637L37.8511 10.0637L37.1489 11.9363ZM34 12H37.5V10H34V12ZM22.8644 16.4312L34.3644 11.9312L33.6356 10.0688L22.1356 14.5688L22.8644 16.4312ZM17 16.5H22.5V14.5H17V16.5ZM18 16V15.5H16V16H18ZM19.4472 16.1056L17.4472 15.1056L16.5528 16.8944L18.5528 17.8944L19.4472 16.1056ZM25.9426 26.3151L19.8503 16.4736L18.1497 17.5264L24.2421 27.3678L25.9426 26.3151ZM27.4749 32.7772L26.0672 26.6186L24.1175 27.0643L25.5251 33.2228L27.4749 32.7772ZM45 32H26.5V34H45V32Z"/>
    <path fill="none" stroke="#000" stroke-linecap="round" stroke-linejoin="round" stroke-width="2" d="M52.5 13.5H56.5L60.5 18.5L51.5 35.5V29.5L57 19.5L55 17H49.5"/>
    <path fill="none" stroke="#000" stroke-linecap="round" stroke-linejoin="round" stroke-width="2" d="M41 15.5L39.6497 30"/>
    <path fill="none" stroke="#000" stroke-linecap="round" stroke-linejoin="round" stroke-width="2" d="M39.2745 38.5L39.7059 39.5L40.8673 57"/>
    <path fill="none" stroke="#000" stroke-linejoin="round" stroke-width="2" d="M33 5H38L37 11H34L33 5Z"/>
    <path fill="none" stroke="#000" stroke-linecap="round" stroke-linejoin="round" stroke-width="2" d="M21.5 15.5H41"/>
    <path fill="none" stroke="#000" stroke-linecap="round" stroke-width="2" d="M26.9888 15.5745L25.6937 22.9311"/>
    <path fill="none" stroke="#000" stroke-linecap="round" stroke-width="2" d="M28 33V36"/>
    <path fill="none" stroke="#000" stroke-linecap="round" stroke-width="2" d="M44 33V38"/>
  </g></g></svg>
